public/svg/profiles/lastfm.svg

<?xml version="1.0" encoding="UTF-8" standalone="no"?>
<svg width="50px" height="50px" viewBox="0 0 50 50" version="1.1" xmlns="http://www.w3.org/2000/svg" xmlns:xlink="http://www.w3.org/1999/xlink">
    <defs></defs>
    <g id="Page-1" stroke="none" stroke-width="1" fill="none" fill-rule="evenodd">
        <g id="Group">
            <g>
                <rect id="Rectangle-path" fill="#000000" x="0" y="0" width="50" height="50" rx="25"></rect>
                <path d="M23.112315,31.7903858 L21.9391909,28.6105477 C21.9391909,28.6105477 20.0328993,30.7306265 17.1742343,30.7306265 C14.6447294,30.7306265 12.8488132,28.5374512 12.8488132,25.0283988 C12.8488132,20.5325435 15.121197,18.9242804 17.3574911,18.9242804 C20.5829505,18.9242804 21.6091883,21.0076708 22.4891016,23.6761134 L23.6622257,27.3313589 C24.8349285,30.8766795 27.0342904,33.7277233 33.3755359,33.7277233 C37.9211461,33.7277233 41,32.3388897 41,28.6837843 C41,25.7230957 39.3136166,24.187789 36.1611791,23.4566839 L33.8153521,22.9450083 C32.2026927,22.5795258 31.7262251,21.9215172 31.7262251,20.8249296 C31.7262251,19.5821489 32.7156712,18.8510438 34.3287519,18.8510438 C36.0881572,18.8510438 37.0410923,19.5090524 37.1878382,21.0807673 L40.8532542,20.6420483 C40.5600434,17.3524254 38.2875191,16 34.54866,16 C31.249898,16 28.0241578,17.2427806 28.0241578,21.2269604 C28.0241578,23.7125216 29.2337928,25.2843766 32.275855,26.0153417 L34.7687086,26.5999737 C36.6380679,27.0386928 37.2610005,27.8062061 37.2610005,28.8663855 C37.2610005,30.2185308 35.9415518,30.7668947 33.4489791,30.7668947 C29.7467713,30.7668947 28.207555,28.8296972 27.3276417,26.1612546 L26.1180066,22.5062893 C24.5787903,17.7544562 22.1225881,16 17.2473966,16 C11.8592267,16 9,19.3992676 9,25.1744518 C9,30.7304864 11.8592267,33.7275833 16.991118,33.7275833 C21.1325803,33.7275833 23.112315,31.7903858 23.112315,31.7903858 L23.112315,31.7903858 L23.112315,31.7903858 Z" id="Shape" fill="#D51007"></path>
            </g>
        </g>
    </g>
</svg>

<svg width="50" height="50" viewBox="0 0 50 50" xmlns="http://www.w3.org/2000/svg"><g fill="none" fill-rule="evenodd"><rect fill="#000" width="50" height="50" rx="25"/><path d="M23.112 31.79l-1.173-3.18s-1.907 2.12-4.766 2.12c-2.53 0-4.325-2.193-4.325-5.702 0-4.495 2.27-6.104 4.507-6.104 3.226 0 4.252 2.084 5.132 4.752l1.172 3.655c1.173 3.547 3.372 6.398 9.714 6.398 4.545 0 7.624-1.39 7.624-5.044 0-2.96-1.686-4.496-4.84-5.227l-2.345-.512c-1.612-.365-2.09-1.023-2.09-2.12 0-1.243.99-1.974 2.604-1.974 1.758 0 2.71.66 2.858 2.23l3.665-.438C40.56 17.352 38.288 16 34.55 16c-3.3 0-6.526 1.243-6.526 5.227 0 2.486 1.21 4.057 4.252 4.788l2.493.585c1.868.44 2.49 1.206 2.49 2.266 0 1.353-1.318 1.9-3.81 1.9-3.703 0-5.242-1.936-6.122-4.605l-1.21-3.654C24.578 17.754 22.123 16 17.248 16 11.857 16 9 19.4 9 25.174c0 5.556 2.86 8.554 7.99 8.554 4.143 0 6.122-1.938 6.122-1.938z" fill="#D51007"/></g></svg>
